F[BALLADE
CUT[Der Maedchenmoerder (Halewijn - Ulinger)
    Es ritt ein Ritter wohl ueber das Ried,]
CNR[er sang ein wunderschoenes Lied,]
REG[Mitteleuropa, Schweiz, Kanton Bern]
SRC[2, S. 112
    1909 aufgezeichnet (vor)]
KEY[Q0041R 16  G 6/8]
MEL[-5_  3__1_1_.13_  2_.2-7_-7__
    2_  1__-6_-6_.-71_  2__-7_-5__
    -5_  1_-7_-6_-5_-3_-5_  1__3_5__
    3_  2_2_2_5_-7_-7_  2__3_1__ //] >>
FCT[Ballade, Verfuehrung, Mord, Mordversuch bzw. Rache]
